src/images/the_team.svg

<svg width="1920" height="500" viewBox="0 0 1920 500" fill="none" xmlns="http://www.w3.org/2000/svg">
<g filter="url(#filter0_d)">
<path d="M52.4 393H104.4V157H197.2V113H-40.4V157H52.4V393ZM352.625 177C323.025 177 297.825 186.6 281.425 204.2V96.2H231.425V393H281.425V285C281.425 242.2 305.425 220.6 341.025 220.6C373.025 220.6 391.825 239 391.825 277V393H441.825V270.6C441.825 206.2 403.825 177 352.625 177ZM708.006 287.4C708.006 220.6 662.406 177 600.006 177C536.406 177 489.606 222.6 489.606 286.2C489.606 349.8 536.006 395.8 607.606 395.8C644.406 395.8 674.406 383.8 693.606 361L666.806 330.2C651.606 345.8 632.806 353.4 608.806 353.4C571.606 353.4 545.606 333.4 539.606 302.2H707.206C707.606 297.4 708.006 291.4 708.006 287.4ZM600.006 217C632.806 217 656.406 238.2 660.406 269H539.206C544.006 237.8 567.606 217 600.006 217ZM928.181 393H980.181V157H1072.98V113H835.381V157H928.181V393ZM1286.13 287.4C1286.13 220.6 1240.53 177 1178.13 177C1114.53 177 1067.73 222.6 1067.73 286.2C1067.73 349.8 1114.13 395.8 1185.73 395.8C1222.53 395.8 1252.53 383.8 1271.73 361L1244.93 330.2C1229.73 345.8 1210.93 353.4 1186.93 353.4C1149.73 353.4 1123.73 333.4 1117.73 302.2H1285.33C1285.73 297.4 1286.13 291.4 1286.13 287.4ZM1178.13 217C1210.93 217 1234.53 238.2 1238.53 269H1117.33C1122.13 237.8 1145.73 217 1178.13 217ZM1409.9 177C1375.5 177 1342.3 185.8 1319.5 203.4L1339.1 239.8C1355.1 226.6 1379.9 218.6 1403.9 218.6C1439.5 218.6 1457.1 235.8 1457.1 265V268.2H1401.9C1337.1 268.2 1313.1 296.2 1313.1 331.8C1313.1 369 1343.9 395.8 1392.7 395.8C1424.7 395.8 1447.9 385.4 1459.9 367V393H1507.1V267.8C1507.1 206.2 1471.5 177 1409.9 177ZM1403.1 359.4C1377.5 359.4 1362.3 347.8 1362.3 329.8C1362.3 314.2 1371.5 301.4 1405.5 301.4H1457.1V326.2C1448.7 348.2 1427.5 359.4 1403.1 359.4ZM1840.87 177C1806.87 177 1778.07 190.6 1760.87 212.6C1746.07 188.6 1720.07 177 1688.87 177C1659.67 177 1634.87 187.4 1618.87 206.6V179.4H1571.27V393H1621.27V284.6C1621.27 242.2 1643.67 220.6 1676.87 220.6C1707.27 220.6 1724.87 239 1724.87 277V393H1774.87V284.6C1774.87 242.2 1797.67 220.6 1830.47 220.6C1860.87 220.6 1878.47 239 1878.47 277V393H1928.47V270.6C1928.47 206.2 1892.47 177 1840.87 177Z" fill="#2B2729"/>
</g>
<defs>
<filter id="filter0_d" x="-140.4" y="0.199951" width="2168.87" height="499.6" filterUnits="userSpaceOnUse" color-interpolation-filters="sRGB">
<feFlood flood-opacity="0" result="BackgroundImageFix"/>
<feColorMatrix in="SourceAlpha" type="matrix" values="0 0 0 0 0 0 0 0 0 0 0 0 0 0 0 0 0 0 127 0"/>
<feOffset dy="4"/>
<feGaussianBlur stdDeviation="50"/>
<feColorMatrix type="matrix" values="0 0 0 0 0 0 0 0 0 0 0 0 0 0 0 0 0 0 0.25 0"/>
<feBlend mode="normal" in2="BackgroundImageFix" result="effect1_dropShadow"/>
<feBlend mode="normal" in="SourceGraphic" in2="effect1_dropShadow" result="shape"/>
</filter>
</defs>
</svg>

<svg fill="none" height="500" viewBox="0 0 1920 500" width="1920" xmlns="http://www.w3.org/2000/svg" xmlns:xlink="http://www.w3.org/1999/xlink"><filter id="a" color-interpolation-filters="sRGB" filterUnits="userSpaceOnUse" height="499.6" width="2168.87" x="-140.4" y=".199951"><feFlood flood-opacity="0" result="BackgroundImageFix"/><feColorMatrix in="SourceAlpha" type="matrix" values="0 0 0 0 0 0 0 0 0 0 0 0 0 0 0 0 0 0 127 0"/><feOffset dy="4"/><feGaussianBlur stdDeviation="50"/><feColorMatrix type="matrix" values="0 0 0 0 0 0 0 0 0 0 0 0 0 0 0 0 0 0 0.25 0"/><feBlend in2="BackgroundImageFix" mode="normal" result="effect1_dropShadow"/><feBlend in="SourceGraphic" in2="effect1_dropShadow" mode="normal" result="shape"/></filter><g filter="url(#a)"><path d="m52.4 393h52v-236h92.8v-44h-237.6v44h92.8zm300.225-216c-29.6 0-54.8 9.6-71.2 27.2v-108h-50v296.8h50v-108c0-42.8 24-64.4 59.6-64.4 32 0 50.8 18.4 50.8 56.4v116h50v-122.4c0-64.4-38-93.6-89.2-93.6zm355.381 110.4c0-66.8-45.6-110.4-108-110.4-63.6 0-110.4 45.6-110.4 109.2s46.4 109.6 118 109.6c36.8 0 66.8-12 86-34.8l-26.8-30.8c-15.2 15.6-34 23.2-58 23.2-37.2 0-63.2-20-69.2-51.2h167.6c.4-4.8.8-10.8.8-14.8zm-108-70.4c32.8 0 56.4 21.2 60.4 52h-121.2c4.8-31.2 28.4-52 60.8-52zm328.175 176h52v-236h92.799v-44h-237.599v44h92.8zm357.949-105.6c0-66.8-45.6-110.4-108-110.4-63.6 0-110.4 45.6-110.4 109.2s46.4 109.6 118 109.6c36.8 0 66.8-12 86-34.8l-26.8-30.8c-15.2 15.6-34 23.2-58 23.2-37.2 0-63.2-20-69.2-51.2h167.6c.4-4.8.8-10.8.8-14.8zm-108-70.4c32.8 0 56.4 21.2 60.4 52h-121.2c4.8-31.2 28.4-52 60.8-52zm231.77-40c-34.4 0-67.6 8.8-90.4 26.4l19.6 36.4c16-13.2 40.8-21.2 64.8-21.2 35.6 0 53.2 17.2 53.2 46.4v3.2h-55.2c-64.8 0-88.8 28-88.8 63.6 0 37.2 30.8 64 79.6 64 32 0 55.2-10.4 67.2-28.8v26h47.2v-125.2c0-61.6-35.6-90.8-97.2-90.8zm-6.8 182.4c-25.6 0-40.8-11.6-40.8-29.6 0-15.6 9.2-28.4 43.2-28.4h51.6v24.8c-8.4 22-29.6 33.2-54 33.2zm437.77-182.4c-34 0-62.8 13.6-80 35.6-14.8-24-40.8-35.6-72-35.6-29.2 0-54 10.4-70 29.6v-27.2h-47.6v213.6h50v-108.4c0-42.4 22.4-64 55.6-64 30.4 0 48 18.4 48 56.4v116h50v-108.4c0-42.4 22.8-64 55.6-64 30.4 0 48 18.4 48 56.4v116h50v-122.4c0-64.4-36-93.6-87.6-93.6z" fill="#2b2729"/></g></svg>
